X:279
T:The Cuckoo's Nest
R:hornpipe
M:4/4
L:1/8
K:Gmaj
dc|B2 BA GB dg|fd cB ce dc|B2 BG (3EFG AB|c2 A2 A2 dc|
B2 BA GB dg|fd cB ce dc|B2 BG (3EFG Ac|B2 G2 G2:|:Bc|
dB GB dB GB|dB cA G2 AB|cA FA cA FA|cB AG G2 BA|
G2 Bc dg ~g2|fd cB ce dc|B2 BG (3EFG Ac|B2 G2 G2:|:Bc|
dg gf ga bg|af d^c d2-de|=fe de ^fg af|gf dB ce dc|
B2 BA GB dg|bg dB ce dc|B2 DE FG Ac|B2 G2 G2:|

